icons/deafened.svg

<svg id="icon" style="touch-action: none;" clip-rule="evenodd" fill-rule="evenodd" stroke-linejoin="round" stroke-miterlimit="2" viewBox="0 0 500 500" xmlns="http://www.w3.org/2000/svg"><path d="m12.899 6.017 6.017-6.017 1.414 1.414-18.84 18.84-1.414-1.414 11.336-11.336c-.408-.351-.751-.512-1.067-.501-.275.009-.486.171-.653.334-.354.344-.537.763-.537.763l-1.93-.828s.337-.794 1.003-1.441c.513-.498 1.203-.899 2.046-.927.729-.025 1.623.223 2.625 1.113zm3.564 1.364.001.032c0 1.934-.024 3.338-1.927 5.875-1.546 2.062-1.624 5.906-5.423 5.906-1.35 0-2.356-.521-3.105-1.359l1.473-1.473c.388.449.908.732 1.632.732 1.237 0 1.567-1.019 1.946-1.933.535-1.292 1.085-2.183 1.797-3.133.668-.89 1.04-1.617 1.245-2.286zm-12.58-1.137c.421-3.054 3.037-5.194 6.239-5.194 1.571 0 3.01.575 4.117 1.527l-1.491 1.491c-.721-.575-1.634-.918-2.626-.918-2.312 0-4.2 1.649-4.2 3.969l-.001.359z" fill="#aebdf0" transform="matrix(23.8095 0 0 23.8095 .00025 .00025)"/></svg>

<?xml version="1.0" encoding="UTF-8" standalone="no"?>
<!DOCTYPE svg PUBLIC "-//W3C//DTD SVG 1.1//EN" "http://www.w3.org/Graphics/SVG/1.1/DTD/svg11.dtd">
<svg width="100%" height="100%" viewBox="0 0 500 500" version="1.1" xmlns="http://www.w3.org/2000/svg" xmlns:xlink="http://www.w3.org/1999/xlink" xml:space="preserve" xmlns:serif="http://www.serif.com/" style="fill-rule:evenodd;clip-rule:evenodd;stroke-linejoin:round;stroke-miterlimit:2;">
    <g transform="matrix(23.8095,0,0,23.8095,0.00025,0.00025)">
        <path d="M12.899,6.017L18.916,0L20.33,1.414L1.49,20.254L0.076,18.84L11.412,7.504C11.004,7.153 10.661,6.992 10.345,7.003C10.07,7.012 9.859,7.174 9.692,7.337C9.338,7.681 9.155,8.1 9.155,8.1L7.225,7.272C7.225,7.272 7.562,6.478 8.228,5.831C8.741,5.333 9.431,4.932 10.274,4.904C11.003,4.879 11.897,5.127 12.899,6.017ZM16.463,7.381L16.464,7.413C16.464,9.347 16.44,10.751 14.537,13.288C12.991,15.35 12.913,19.194 9.114,19.194C7.764,19.194 6.758,18.673 6.009,17.835L7.482,16.362C7.87,16.811 8.39,17.094 9.114,17.094C10.351,17.094 10.681,16.075 11.06,15.161C11.595,13.869 12.145,12.978 12.857,12.028C13.525,11.138 13.897,10.411 14.102,9.742L16.463,7.381ZM3.883,6.244C4.304,3.19 6.92,1.05 10.122,1.05C11.693,1.05 13.132,1.625 14.239,2.577L12.748,4.068C12.027,3.493 11.114,3.15 10.122,3.15C7.81,3.15 5.922,4.799 5.922,7.119L5.921,7.478L3.883,6.244Z" style="fill:rgb(174,189,240);"/>
    </g>
</svg>
